X: 50
T:Spanish Dance
% Nottingham Music Database
S:Thomas Hardy Collection via Yetties, via PR
M:2/4
L:1/4
K:G
"(D7)"d |"G"g/2g/2 "C"a/4g/4f/4e/4|"G"d/2d/2 "C"e/4d/4c/4B/4|\
"C"c/2c/2 "G"B/2B/2|"D"d/4e/4d/4c/4 "G"B/2d/2|
"Em"g/2g/2 "Am"a/4g/4f/4e/4|"D"d/2d/2 "C"e/4d/4c/4B/4|"Am"c/2c/2 "D"B/2A/2|\
"G"G ::
B3/4c/4 |"G"d/2B/2 d/2B/2|"G"d/4e/4g/4f/4 e/4d/4c/4B/4|"Am"c/2A/2 c/2A/2|
"D"d/4e/4d/4c/4 "G"B/2d/4c/4|"G"B/2B/2 "C"c/2c/2|"G"d/2d/2 "C"e/2e/2|\
"D"f/2f/2 f/4g/4a/4f/4|"G"g :|
f|:"Em"e "B"^d|"Em"e/2g/2 b|"Am"a3/4g/4 f/2e/2|"B7"^d/2f/4d/4 B/2B/2|\
"Em"e "B"^d|"Em"e/2g/2 b|"Em"g/2f/4e/4 "B7"f/2e/4^d/4|"Em"e2:|


